build/img/sprite/icon-man.svg

<svg width="13" height="16" viewBox="0 0 13 16" fill="none" xmlns="http://www.w3.org/2000/svg">
<path d="M6.08454 7.82505C7.86346 7.82505 9.3057 6.07337 9.3057 3.91255C9.3057 1.75168 8.8322 0 6.08454 0C3.33688 0 2.86328 1.75168 2.86328 3.91255C2.86328 6.07337 4.30552 7.82505 6.08454 7.82505Z" fill="currentColor"/>
<path d="M12.1612 13.641C12.1016 9.87679 11.61 8.80419 7.848 8.12524C7.848 8.12524 7.31845 8.80003 6.08416 8.80003C4.84987 8.80003 4.32023 8.12524 4.32023 8.12524C0.599314 8.79679 0.0778057 9.85348 0.00923427 13.5187C0.00361141 13.818 0.00100571 13.8337 0 13.799C0.000228571 13.8641 0.000502755 13.9845 0.000502755 14.1945C0.000502755 14.1945 0.896137 16 6.08416 16C11.2721 16 12.1678 14.1945 12.1678 14.1945C12.1678 14.0596 12.1679 13.9658 12.168 13.9019C12.167 13.9234 12.165 13.8818 12.1612 13.641Z" fill="currentColor"/>
</svg>

<svg width="13" height="16" fill="none" xmlns="http://www.w3.org/2000/svg"><path d="M6.085 7.825c1.778 0 3.22-1.752 3.22-3.912C9.306 1.752 8.833 0 6.086 0 3.337 0 2.863 1.752 2.863 3.913c0 2.16 1.443 3.912 3.222 3.912zm6.076 5.816c-.06-3.764-.551-4.837-4.313-5.516 0 0-.53.675-1.764.675S4.32 8.125 4.32 8.125C.6 8.797.078 9.853.01 13.52c-.006.299-.009.315-.01.28v.396S.897 16 6.085 16s6.084-1.806 6.084-1.806v-.292a2.433 2.433 0 01-.007-.261z" fill="currentColor"/></svg>
